en/_assets/tracker/svg/my-page.svg

<svg width="18" height="18" viewBox="0 0 18 18" fill="none" xmlns="http://www.w3.org/2000/svg">
<path fill-rule="evenodd" clip-rule="evenodd" d="M8.91225 2.33889C8.97711 2.31886 9.04651 2.31886 9.11137 2.33889C9.11137 2.33889 9.11925 2.34114 9.13612 2.35014C9.15525 2.36139 9.18563 2.38164 9.23175 2.41764C9.33075 2.49639 9.45337 2.61114 9.65587 2.80014L15.9323 8.63776C16.0635 8.7598 16.2379 8.82468 16.417 8.81814C16.5962 8.8116 16.7653 8.73417 16.8874 8.60289C17.0094 8.47161 17.0743 8.29722 17.0678 8.1181C17.0612 7.93898 16.9838 7.76979 16.8525 7.64776L10.5592 1.79551C10.3792 1.62789 10.2161 1.47714 10.0699 1.36126C9.91238 1.23751 9.7335 1.11826 9.51075 1.04964C9.18608 0.949275 8.83867 0.949275 8.514 1.04964C8.30925 1.11721 8.11915 1.22295 7.95375 1.36126C7.8075 1.47714 7.6455 1.62789 7.4655 1.79551L1.17225 7.65001C1.04112 7.77205 0.963832 7.94117 0.957397 8.12019C0.950962 8.2992 1.0159 8.47344 1.13794 8.60458C1.25997 8.73571 1.4291 8.81299 1.60811 8.81943C1.78713 8.82586 1.96137 8.76092 2.0925 8.63889L8.36775 2.80014C8.57025 2.61226 8.694 2.49864 8.793 2.41989C8.82326 2.39519 8.85522 2.37263 8.88862 2.35239C8.9055 2.34114 8.91112 2.34114 8.91225 2.34114V2.34001V2.33889ZM4.49775 9.50064C4.49775 9.32162 4.42663 9.14993 4.30005 9.02334C4.17346 8.89675 4.00177 8.82564 3.82275 8.82564C3.64373 8.82564 3.47204 8.89675 3.34545 9.02334C3.21887 9.14993 3.14775 9.32162 3.14775 9.50064V14.9906C3.14775 15.2539 3.14775 15.4901 3.1635 15.687C3.18037 15.8974 3.21975 16.1213 3.33225 16.3406C3.49379 16.6583 3.75174 16.9166 4.06912 17.0786C4.2885 17.1911 4.51237 17.2294 4.72275 17.2474C4.91962 17.2631 5.15587 17.2631 5.41912 17.2631H12.5809C12.843 17.2631 13.0804 17.2631 13.2761 17.2463C13.4876 17.2294 13.7115 17.19 13.9309 17.0786C14.2487 16.9168 14.507 16.6584 14.6689 16.3406C14.7802 16.1213 14.8185 15.8974 14.8365 15.687C14.8523 15.4901 14.8522 15.2539 14.8522 14.9906V9.50064C14.8522 9.32162 14.7811 9.14993 14.6545 9.02334C14.528 8.89675 14.3563 8.82564 14.1772 8.82564C13.9982 8.82564 13.8265 8.89675 13.7 9.02334C13.5734 9.14993 13.5022 9.32162 13.5022 9.50064V14.967C13.5022 15.2618 13.5022 15.4418 13.491 15.5768C13.4868 15.6277 13.4781 15.6781 13.4651 15.7275C13.4328 15.791 13.3812 15.8425 13.3177 15.8749L13.3121 15.8771L13.2896 15.8839C13.2488 15.8924 13.2075 15.8981 13.1659 15.9008C13.0309 15.912 12.8509 15.912 12.5561 15.912H5.445C5.15025 15.912 4.96912 15.912 4.83412 15.9008C4.78483 15.8974 4.73591 15.8899 4.68787 15.8783L4.68337 15.8749C4.61822 15.8415 4.56571 15.7878 4.53375 15.7219C4.5221 15.6739 4.51457 15.6249 4.51125 15.5756C4.5 15.4418 4.5 15.2606 4.5 14.967V9.50064H4.49775Z" fill="black"/>
</svg>

<svg xmlns="http://www.w3.org/2000/svg" width="18" height="18" fill="none" viewBox="0 0 18 18">
    <path fill="#000" fill-rule="evenodd" d="M8.912 2.339a.337.337 0 0 1 .2 0s.007.002.024.011c.02.011.05.032.096.068.099.078.221.193.424.382l6.276 5.838a.676.676 0 1 0 .92-.99L10.56 1.796a8.735 8.735 0 0 0-.49-.435 1.722 1.722 0 0 0-.558-.311c-.325-.1-.672-.1-.997 0a1.708 1.708 0 0 0-.56.311 8.73 8.73 0 0 0-.489.435L1.172 7.65a.675.675 0 0 0 .92.989L8.368 2.8c.202-.188.326-.301.425-.38a.838.838 0 0 1 .096-.068c.017-.01.022-.01.023-.01v-.003ZM4.498 9.5a.675.675 0 0 0-1.35 0v5.49c0 .263 0 .5.015.696.017.21.057.434.17.654.16.317.419.576.736.738.22.112.443.15.654.168.197.016.433.016.696.016h7.162c.262 0 .5 0 .695-.017.212-.017.435-.056.655-.167.318-.162.576-.42.738-.738.111-.22.15-.444.167-.654.016-.197.016-.433.016-.696V9.5a.675.675 0 1 0-1.35 0v5.466c0 .295 0 .475-.011.61a.875.875 0 0 1-.026.15.337.337 0 0 1-.147.148l-.006.002-.022.007a.889.889 0 0 1-.124.017c-.135.011-.315.011-.61.011H5.445c-.295 0-.476 0-.61-.011a.881.881 0 0 1-.147-.023l-.005-.003a.337.337 0 0 1-.15-.153.868.868 0 0 1-.022-.146c-.011-.134-.011-.315-.011-.609V9.501h-.002Z" clip-rule="evenodd"/>
</svg>
